X: 10
T: Napper Tandy
%R: march, reel
B: "Twenty Four Country Dances for the Year 1799", Thomas Skillern, ed. p.5 #2
F: http://www.vwml.org/browse/browse-collections-dance-tune-books/browse-skillerns1799
Z: 2014 John Chambers <jc:trillian.mit.edu>
M: 2/4
L: 1/8
K: G
|:\
Ggfe | dcBA | (GBdB) | gAAB |\
Ggfe | dcBA | (dedc) | (BGG)z :|
|:\
(Bgdg) | (Bgdg) | (GBdB) | (GBdB) |\
Bgdg | Bgdg | BGAF | G2 Gz :|
%%begintext align
%% Turn your Partner with the right hand, Cast
%% off 1 Cu: and turn with the left, Sett and 3
%% top and Bottom, then sideways.
%%endtext
